svgs/sharp-solid/arrow-down-to-dotted-line.svg

<svg xmlns="http://www.w3.org/2000/svg" viewBox="0 0 448 512"><!--! Font Awesome Pro 6.6.0 by @fontawesome - https://fontawesome.com License - https://fontawesome.com/license (Commercial License) Copyright 2024 Fonticons, Inc. --><path d="M246.6 342.6L224 365.3l-22.6-22.6-128-128L50.7 192 96 146.7l22.6 22.6L192 242.7l0-66.7 0-112 0-32 64 0 0 32 0 112 0 66.7 73.4-73.4L352 146.7 397.3 192l-22.6 22.6-128 128zM64 416l0 64L0 480l0-64 64 0zm96 0l0 64-64 0 0-64 64 0zm32 64l0-64 64 0 0 64-64 0zm160-64l0 64-64 0 0-64 64 0zm32 0l64 0 0 64-64 0 0-64z"/></svg>

<svg xmlns="http://www.w3.org/2000/svg" viewBox="0 0 448 512"><!--! Font Awesome Pro 6.4.0 by @fontawesome - https://fontawesome.com License - https://fontawesome.com/license (Commercial License) Copyright 2023 Fonticons, Inc. --><path d="M246.6 342.6L224 365.3l-22.6-22.6-128-128L50.7 192 96 146.7l22.6 22.6L192 242.7V176 64 32h64V64 176v66.7l73.4-73.4L352 146.7 397.3 192l-22.6 22.6-128 128zM64 416v64H0V416H64zm96 0v64H96V416h64zm32 64V416h64v64H192zm160-64v64H288V416h64zm32 0h64v64H384V416z"/></svg>
